X:1
T:Title
%%score 1 { 2 | 3 }
L:1/8
Q:1/4=90
M:3/4
K:C
V:1 treble nm="Grand Piano, Staff 1"
V:2 bass nm="Choir Pad, Redemption Ground"
V:3 bass 
V:1
 [EG][EG] [CE] [Ec]3 | [GB][GB] [FA] [FA]3 | [FA][FA] [CF] [Fc]3 | [FA][FA] [EG] [EG]3 | %4
w: By~James~McGranahan * * *||||
 [EG][EG] [CE] [Ge]3 | [Ge][Gd] [Gc] [FA]3 | [Fc][FB] [FA][EG] [Ge][Fd]- | [Fd][Ec] [DB] [Ec]3 | %8
w: ||||
 GA B c3 | [Ec][EB] [D^G] [CA]3 | AB c d3 | [Gd][^Fc] [DF] [DG]3 | [EG][EG] [CE] [Ge]3 | %13
w: |||||
 [Ge][Gd] [Gc] [FA]3 | [Fc][FB] [FA][EG] [Ge][Fd]- | [Fd][Ec] [DB] [Ec]3- | [Ec]4 z2 |] %17
w: ||||
V:2
 CC G, G,3 | G,[K:treble]C C C3 | CC A, A,3 | CC C C3 | CC G, C3 | CB, C C3 | %6
 A,B, CC C[K:bass]A,- | A, G,2 G,3 | G,A, B, C3 | A,^G, B, A,3 | A,B,[K:treble] C D3 | B,A, C B,3 | %12
 CC G, C3 | CB, C C3 | A,B, CC C[K:bass]A,- | A, G,2 G,3- | G,4 z2 |] %17
V:3
 C,C, C, C,3 | E,F, F, F,3 | F,F, F, F,3 | F,C, C, C,3 | C,C, C, C,3 | C,D, E, F,3 | %6
 F,F, F,C, C,F,- | F, z z C,3 | z6 | z E, E, A,,3 | z6 | D,D, D, [G,,G,]3 | C,C, C, C,3 | %13
 C,D, E, F,3 | F,F, F,C, C,F,- | F, z z C,3- | C,4 z2 |] %17

